X:6
T:God Bless America
M:4/4
K:HP
{Gdc}d4{gcd}c2{g}B2|{gcd}c3/2B/2{G}A4-A2|{gef}e4{g}d2e2|{gfg}f4-f2{g}e3/2f/2|!
{gf}g2{Bd}B4{gf}g2 |{fg}f2{AGAG}A4{Gdc}d3/2e/2 |{gfg}f2{g}e3/2d/2{gef}e2{g}d3/2c/2|{Gdc}d4-d2{g}c3/2d/2|!
{gef}e2{AGAG}A4{g}d3/2e/2|{gfg}f2{AGAG}A4{g}e3/2f/2|{gf}g2{cd}c4{g}f3/2g/2|{ag}a4-a4|!
|: {Bd}B4{G}A2{gf}g2|f3/2e/2{Gdc}d4{gf}g2|{fg}f4{gef}e4|1 !rbstop! x {ag}a4-a4 :|2 !rbstop! x {Gdc}d4-d2 |]!

